src/assets/outline/DocumentSketch.svg

<svg width="24" height="24" viewBox="0 0 24 24"  xmlns="http://www.w3.org/2000/svg">
<path d="M15 22.75H9C3.57 22.75 1.25 20.43 1.25 15V9C1.25 3.57 3.57 1.25 9 1.25H14C14.41 1.25 14.75 1.59 14.75 2C14.75 2.41 14.41 2.75 14 2.75H9C4.39 2.75 2.75 4.39 2.75 9V15C2.75 19.61 4.39 21.25 9 21.25H15C19.61 21.25 21.25 19.61 21.25 15V10C21.25 9.59 21.59 9.25 22 9.25C22.41 9.25 22.75 9.59 22.75 10V15C22.75 20.43 20.43 22.75 15 22.75Z" />
<path d="M22 10.7505H18C14.58 10.7505 13.25 9.42048 13.25 6.00048V2.00048C13.25 1.70048 13.43 1.42048 13.71 1.31048C13.99 1.19048 14.31 1.26048 14.53 1.47048L22.53 9.47048C22.74 9.68048 22.81 10.0105 22.69 10.2905C22.58 10.5705 22.3 10.7505 22 10.7505ZM14.75 3.81048V6.00048C14.75 8.58048 15.42 9.25048 18 9.25048H20.19L14.75 3.81048Z" />
<path d="M9.65015 18.7102C9.21015 18.7102 8.79015 18.5402 8.48015 18.2302L6.02015 15.7702C5.48015 15.2302 5.39015 14.3202 5.81015 13.6802L6.94015 11.9802C7.22015 11.5502 7.80015 11.2402 8.32015 11.2402H10.9701C11.4801 11.2402 12.0601 11.5502 12.3501 11.9802L13.4801 13.6702C13.9001 14.3002 13.8101 15.2202 13.2701 15.7602L10.8101 18.2202C10.5101 18.5402 10.0901 18.7102 9.65015 18.7102ZM8.33015 12.7502C8.29015 12.7602 8.21015 12.8002 8.19015 12.8302L7.07015 14.5202C7.04015 14.5602 7.05015 14.6802 7.09015 14.7202L9.55015 17.1802C9.60015 17.2302 9.72015 17.2302 9.77015 17.1802L12.2301 14.7202C12.2701 14.6802 12.2801 14.5702 12.2501 14.5202L11.1201 12.8302C11.1001 12.8102 11.0201 12.7702 10.9801 12.7602L8.33015 12.7502Z" />
</svg>

<?xml version="1.0" encoding="UTF-8"?>
<svg width="24" height="24" viewBox="0 0 24 24" xmlns="http://www.w3.org/2000/svg">
 <path d="m15 22.75h-6c-5.43 0-7.75-2.32-7.75-7.75v-6c0-5.43 2.32-7.75 7.75-7.75h5c0.41 0 0.75 0.34 0.75 0.75s-0.34 0.75-0.75 0.75h-5c-4.61 0-6.25 1.64-6.25 6.25v6c0 4.61 1.64 6.25 6.25 6.25h6c4.61 0 6.25-1.64 6.25-6.25v-5c0-0.41 0.34-0.75 0.75-0.75s0.75 0.34 0.75 0.75v5c0 5.43-2.32 7.75-7.75 7.75z"/>
 <path d="m22 10.75h-4c-3.42 0-4.75-1.33-4.75-4.75v-4c0-0.3 0.18-0.58 0.46-0.69 0.28-0.12 0.6-0.05 0.82 0.16l8 8c0.21 0.21 0.28 0.54002 0.16 0.82002-0.11 0.28-0.39 0.46-0.69 0.46zm-7.25-6.94v2.19c0 2.58 0.67 3.25 3.25 3.25h2.19l-5.44-5.44z"/>
 <path d="m9.6502 18.71c-0.44 0-0.86-0.17-1.17-0.48l-2.46-2.46c-0.54-0.54-0.63-1.45-0.21-2.09l1.13-1.7c0.28-0.43 0.86-0.74 1.38-0.74h2.65c0.51 0 1.09 0.31 1.38 0.74l1.13 1.69c0.42 0.63 0.33 1.55-0.21 2.09l-2.46 2.46c-0.3 0.32-0.72 0.49-1.16 0.49zm-1.32-5.96c-0.04 0.01-0.12 0.05-0.14 0.08l-1.12 1.69c-0.03 0.04-0.02 0.16 0.02 0.2l2.46 2.46c0.05 0.05 0.17 0.05 0.22 0l2.46-2.46c0.04-0.04 0.05-0.15 0.02-0.2l-1.13-1.69c-0.02-0.02-0.1-0.06-0.14-0.07l-2.65-0.01z"/>
</svg>
